X:53
T:Inte s\"orjer jag f\"or mina barn \"ar sm{\aa}
R:sl\"angpolska
H:efter Johan August Pettersson, Tolg, Sm{\aa}land
H:\"Aven i Am. Jfr #137
A:Sm{\aa}land
B:SvL Sml 120
Z:id:hn-sp-53
M:3/4
L:1/16
K:Am
E3A A2A2 G2G2 | A2A2 G2A2 B4 |
w:In-te s\"or-jer jag f\"or mi-na barn e sm{\aa}
B2B2 e2BB c2cc | {GA}B2A2 G2G2 A4 :|
w:fem-ton ligg-er i vag-gan och fem-ton var jag g{\aa}r.
|: c2(B2 c2)(d2 e4) | {ef}e4 B4 d4 |
e4 A2A2 c2c2 | B2B2 G2G2 A4 :|
W:Annan text:
W:1. Inte s\"orjer jag f\"or mina barn \"ar sm{\aa}
W:   femton ligger i graven och resten \"ar s{\aa} f{\aa}.
W:2. Inte s\"orjer jag f\"or kassan den \"ar tom
W:   inte r{\aa}r jag f\"or att p{\aa}ven bor i Rom
W:3. Inte s\"ojer jag f\"or \"angen bliver gr\"on
W:   d\"ar \"ar gr\"aset mjukt och lilla blomman sk\"on
W:Vers 1 \"aven:
W:   Somma b\"orja krypa, andra b\"orja g{\aa}
W:Del 2:
W:   Hustru min \"ar sn\"aller, fast\"an hon gn\"aller, 
W:   N\"ar det sen blir kv\"aller, slumra alla s\"ott. 
W:Vers 2, del 2:
W:   Han har m{\aa}nga pengar, feta, lata dr\"angar, 
W:   Som i mjuka s\"angar slumra in s{\aa} s\"ott. 
W:Vers 3, del 2:
W:   D\"ar ska vi spatsera, jag och barnen flera. 
W:   D\"ar ska vi regera, sedan slumra s\"ott. 
W:4. Inte s\"orjer jag, f\"or visan ej \"ar l{\aa}ng, 
W:   Barnet sjunger v\"al en l\"angre n{\aa}gon g{\aa}ng. 
W:   Sen jag livets grader, genomg{\aa}tt s{\aa} glader, 
W:   Vill jag be Gud Fader att f{\aa} slumra s\"ott. 
W:   Hopp fallerallalera, Fallallerallerala! 
W:   Hopp fallerallalera, Fallallerallerala! 
W:

